;FLAVOR:UltiGCode
;TIME:15540
;MATERIAL:17030
;MATERIAL2:0
;NOZZLE_DIAMETER:0.4
;MINX:61.56
;MINY:86.441
;MINZ:0.27
;MAXX:162.24
;MAXY:136.382
;MAXZ:29.37
;TARGET_MACHINE.NAME:Ultimaker 2+
;Generated with Cura_SteamEngine 5.6.0
M82 ;absolute extrusion mode
G0 F3000 Y50 ;avoid prime blob
G92 E0
G92 E0
G10
;LAYER_COUNT:292
;LAYER:0
M107
G0 F7200 X65.217 Y89.08 Z0.27
;TYPE:SKIRT
G11
G1 F1800 X68.289 Y88.077 E0.34901
G1 X81.541 Y88.08 E1.78023
G1 X84.09 Y88.731 E2.06436
G1 X85.607 Y90.033 E2.28026
G1 X86.398 Y89.635 E2.37589
G1 X88.56 Y89.4 E2.61077
G1 X90.703 Y89.407 E2.84221
G1 X92.74 Y90.036 E3.07246
G1 X94.476 Y88.679 E3.31043
G1 X97.033 Y88.073 E3.59423
G1 X105.431 Y88.066 E4.50122
G1 X105.638 Y87.949 E4.5269
G1 X107.842 Y86.917 E4.78973
G1 X111.726 Y86.441 E5.21234
G1 X115.293 Y87.146 E5.60503
G1 X117.753 Y88.028 E5.88727
G1 X118.735 Y88.064 E5.9934
G1 X132.552 Y88.108 E7.48564
G1 X132.69 Y88.122 E7.50062
G1 X134.002 Y88.123 E7.64232
G1 X136.484 Y88.834 E7.92116
G1 X137.857 Y90.004 E8.11598
G1 X140.051 Y89.367 E8.36271
G1 X142.816 Y89.411 E8.66137
G1 X145.097 Y90.003 E8.91588
G1 X146.784 Y88.683 E9.14722
G1 X149.338 Y88.078 E9.43069
G1 X153.697 Y88.078 E9.90146
G1 X155.891 Y88.566 E10.1442
G1 X157.572 Y89.725 E10.36472
G1 X159.487 Y91.664 E10.65904
G1 X160.523 Y94.639 E10.99927
G1 X160.597 Y98.023 E11.36483
G1 X161.582 Y99.527 E11.559
G1 X162.239 Y101.986 E11.83388
G1 X162.24 Y108.112 E12.49549
G1 X161.49 Y109.785 E12.6935
G1 X161.463 Y110.624 E12.78416
G1 X161.439 Y120.799 E13.88306
G1 X160.853 Y123.098 E14.13929
G1 X160.555 Y123.589 E14.20132
G1 X160.539 Y128.117 E14.69035
G1 X160.098 Y130.094 E14.90911
G1 X159.016 Y131.877 E15.13436
G1 X156.819 Y133.975 E15.46245
G1 X153.827 Y134.941 E15.80201
G1 X149.393 Y134.942 E16.28088
G1 X146.814 Y134.288 E16.56823
G1 X145.325 Y132.986 E16.78185
G1 X144.399 Y133.397 E16.89126
G1 X141.805 Y133.688 E17.17317
G1 X140.295 Y133.684 E17.33625
G1 X137.902 Y133.178 E17.60041
G1 X137.538 Y133 E17.64417
G1 X136.068 Y134.194 E17.8487
G1 X133.405 Y134.93 E18.14709
G1 X132.304 Y134.909 E18.26602
G1 X132.113 Y134.925 E18.28672
G1 X118.092 Y134.976 E19.801
G1 X117.525 Y135.234 E19.86828
G1 X115.379 Y136.017 E20.11499
G1 X111.925 Y136.382 E20.4901
G1 X108.667 Y136.221 E20.84239
G1 X105.635 Y135.085 E21.19208
G1 X105.346 Y134.943 E21.22685
G1 X97.097 Y134.94 E22.11775
G1 X94.535 Y134.291 E22.40318
G1 X93.023 Y132.986 E22.61889
G1 X92.201 Y133.363 E22.71656
G1 X89.929 Y133.664 E22.96408
G1 X88.084 Y133.696 E23.16337
G1 X85.592 Y133.169 E23.43845
G1 X85.253 Y133.006 E23.47908
G1 X83.906 Y134.17 E23.67135
G1 X81.193 Y134.943 E23.97601
G1 X67.99 Y134.941 E25.40194
G1 X65.372 Y134.051 E25.70057
G1 X65.056 Y133.851 E25.74096
G1 X62.563 Y131.284 E26.12742
G1 X61.56 Y128.212 E26.47643
G1 X61.56 Y117.6 E27.62253
G1 X61.609 Y115.558 E27.84313
G1 X61.578 Y115.232 E27.8785
G1 X61.56 Y94.507 E30.1168
G1 X62.45 Y91.889 E30.41543
G1 X62.65 Y91.573 E30.45582
G1 X65.217 Y89.08 E30.84228
G0 F7200 X65.43 Y89.431
G1 F1800 X68.352 Y88.477 E31.17425
G1 X81.489 Y88.48 E32.59305
G1 X83.901 Y89.096 E32.8619
G1 X85.548 Y90.509 E33.09627
G1 X86.51 Y90.026 E33.21253
G1 X88.559 Y89.8 E33.43516
G1 X90.643 Y89.807 E33.66023
G1 X92.822 Y90.48 E33.90654
G1 X94.653 Y89.048 E34.15758
G1 X97.079 Y88.473 E34.42685
G1 X105.538 Y88.466 E35.34042
G1 X105.808 Y88.311 E35.37404
G1 X107.954 Y87.306 E35.62997
G1 X111.71 Y86.846 E36.03864
G1 X115.158 Y87.523 E36.41814
G1 X117.676 Y88.426 E36.70704
G1 X118.72 Y88.464 E36.81987
G1 X132.511 Y88.506 E38.3093
G1 X132.668 Y88.522 E38.32635
G1 X133.944 Y88.523 E38.46415
G1 X136.293 Y89.196 E38.72805
G1 X137.799 Y90.479 E38.94172
G1 X138.017 Y90.368 E38.96814
G1 X140.104 Y89.768 E39.20267
G1 X142.763 Y89.81 E39.48988
G1 X145.188 Y90.439 E39.76044
G1 X146.961 Y89.052 E40.00356
G1 X149.384 Y88.478 E40.27248
G1 X153.655 Y88.478 E40.73375
G1 X155.728 Y88.939 E40.96311
G1 X157.312 Y90.031 E41.17089
G1 X159.139 Y91.881 E41.4517
G1 X160.124 Y94.711 E41.77532
G1 X160.2 Y98.147 E42.1465
G1 X161.213 Y99.694 E42.34621
G1 X161.839 Y102.037 E42.60813
G1 X161.84 Y108.026 E43.25494
G1 X161.093 Y109.693 E43.45223
G1 X161.063 Y110.611 E43.55143
G1 X161.039 Y120.747 E44.64612
G1 X160.48 Y122.942 E44.89074
G1 X160.155 Y123.476 E44.95826
G1 X160.139 Y128.074 E45.45484
G1 X159.722 Y129.942 E45.66155
G1 X158.701 Y131.625 E45.87415
G1 X156.61 Y133.622 E46.18642
G1 X153.763 Y134.541 E46.50952
G1 X149.444 Y134.542 E46.97597
G1 X147.004 Y133.923 E47.24784
G1 X145.395 Y132.517 E47.47861
G1 X144.294 Y133.006 E47.60872
G1 X141.76 Y133.29 E47.8841
G1 X140.336 Y133.284 E48.0379
G1 X137.985 Y132.787 E48.29742
G1 X137.492 Y132.522 E48.35787
G1 X135.881 Y133.83 E48.58198
G1 X133.353 Y134.529 E48.86525
G1 X132.295 Y134.509 E48.97953
G1 X132.112 Y134.525 E48.99937
G1 X118.004 Y134.576 E50.52305
G1 X117.388 Y134.858 E50.59621
G1 X115.289 Y135.624 E50.83753
G1 X111.945 Y135.982 E51.20075
G1 X108.748 Y135.824 E51.54644
G1 X105.775 Y134.71 E51.88933
G1 X105.441 Y134.543 E51.92966
G1 X97.148 Y134.54 E52.8253
G1 X94.724 Y133.926 E53.09536
G1 X93.09 Y132.515 E53.32852
G1 X92.089 Y132.975 E53.4475
G1 X89.922 Y133.264 E53.68361
G1 X88.121 Y133.295 E53.87815
G1 X85.675 Y132.778 E54.14815
G1 X85.198 Y132.524 E54.20651
G1 X83.711 Y133.809 E54.41877
G1 X81.136 Y134.543 E54.70794
G1 X68.057 Y134.541 E56.12048
G1 X65.501 Y133.672 E56.41204
G1 X65.343 Y133.572 E56.43224
G1 X62.914 Y131.071 E56.80877
G1 X61.96 Y128.149 E57.14074
G1 X61.96 Y117.61 E58.27895
G1 X62.01 Y115.542 E58.50236
G1 X61.978 Y115.232 E58.53602
G1 X61.96 Y94.574 E60.76708
G1 X62.829 Y92.018 E61.05865
G1 X62.929 Y91.86 E61.07884
G1 X65.43 Y89.431 E61.45537
G0 F7200 X65.643 Y89.782
G1 F1800 X68.415 Y88.877 E61.7703
G1 X81.437 Y88.88 E63.17668
G1 X83.712 Y89.461 E63.43026
G1 X85.489 Y90.986 E63.68316
G1 X86.624 Y90.416 E63.82033
G1 X88.558 Y90.2 E64.0305
G1 X90.583 Y90.207 E64.2492
G1 X92.903 Y90.924 E64.51146
G1 X94.83 Y89.417 E64.77566
G1 X97.125 Y88.873 E65.03039
G1 X105.646 Y88.866 E65.95065
G1 X105.978 Y88.673 E65.99213
G1 X108.066 Y87.695 E66.24114
G1 X111.694 Y87.251 E66.63589
G1 X115.023 Y87.9 E67.00219
G1 X117.373 Y88.741 E67.27175
G1 X117.547 Y88.822 E67.29248
G1 X118.706 Y88.864 E67.41774
G1 X132.471 Y88.904 E68.90436
G1 X132.648 Y88.922 E68.92358
G1 X133.886 Y88.923 E69.05728
G1 X136.102 Y89.558 E69.30624
G1 X137.752 Y90.964 E69.54036
G1 X138.128 Y90.752 E69.58698
G1 X140.156 Y90.169 E69.81488
G1 X142.709 Y90.209 E70.09063
G1 X144.901 Y90.778 E70.33522
G1 X145.195 Y90.941 E70.37152
G1 X147.138 Y89.421 E70.63795
G1 X149.43 Y88.878 E70.89234
G1 X153.613 Y88.878 E71.3441
G1 X155.565 Y89.312 E71.56006
G1 X157.052 Y90.337 E71.75512
G1 X158.79 Y92.098 E72.02233
G1 X159.725 Y94.784 E72.32949
G1 X159.803 Y98.271 E72.70618
G1 X160.844 Y99.861 E72.91143
G1 X161.439 Y102.088 E73.16039
G1 X161.44 Y107.94 E73.7924
G1 X160.696 Y109.601 E73.98896
G1 X160.663 Y110.598 E74.0967
G1 X160.639 Y120.695 E75.18718
G1 X160.092 Y122.843 E75.42657
G1 X159.755 Y123.356 E75.49285
G1 X159.739 Y128.031 E75.99776
G1 X159.347 Y129.789 E76.19228
G1 X158.385 Y131.374 E76.39253
G1 X156.401 Y133.269 E76.68883
G1 X153.699 Y134.141 E76.99547
G1 X149.495 Y134.142 E77.4495
G1 X147.194 Y133.558 E77.70589
G1 X145.466 Y132.048 E77.95373
G1 X144.186 Y132.616 E78.10497
G1 X141.762 Y132.89 E78.36843
G1 X140.377 Y132.884 E78.51801
G1 X138.068 Y132.396 E78.77289
G1 X137.456 Y132.036 E78.84957
G1 X135.696 Y133.466 E79.09448
G1 X133.301 Y134.128 E79.36284
G1 X132.278 Y134.109 E79.47335
G1 X132.078 Y134.126 E79.49502
G1 X117.917 Y134.176 E81.02442
G1 X117.251 Y134.482 E81.10358
G1 X115.198 Y135.231 E81.3396
G1 X111.965 Y135.582 E81.69081
G1 X108.829 Y135.427 E82.02992
G1 X105.954 Y134.352 E82.36141
G1 X105.536 Y134.143 E82.41188
G1 X97.199 Y134.14 E83.31228
G1 X94.913 Y133.561 E83.56696
G1 X93.157 Y132.045 E83.81751
G1 X91.977 Y132.587 E83.95775
G1 X89.915 Y132.864 E84.18245
G1 X88.158 Y132.894 E84.37223
G1 X85.758 Y132.387 E84.63715
G1 X85.152 Y132.034 E84.71289
G1 X83.516 Y133.448 E84.94643
G1 X81.079 Y134.143 E85.22012
G1 X68.124 Y134.141 E86.61926
G1 X65.63 Y133.293 E86.90376
G1 X63.265 Y130.858 E87.27036
G1 X62.36 Y128.086 E87.58529
G1 X62.36 Y117.62 E88.71561
G1 X62.411 Y115.525 E88.94194
G1 X62.376 Y115.19 E88.97832
G1 X62.36 Y94.641 E91.19761
G1 X63.208 Y92.147 E91.48211
G1 X65.643 Y89.782 E91.84871
G0 F7200 X65.856 Y90.133
G1 F1800 X68.478 Y89.277 E92.14659
G1 X81.385 Y89.28 E93.54055
G1 X83.523 Y89.826 E93.77887
G1 X85.431 Y91.463 E94.05038
G1 X86.738 Y90.806 E94.20836
G1 X88.602 Y90.598 E94.41093
G1 X90.523 Y90.607 E94.6184
G1 X92.984 Y91.368 E94.8966
G1 X95.007 Y89.786 E95.17396
G1 X97.171 Y89.273 E95.41415
G1 X105.754 Y89.266 E96.34111
G1 X106.148 Y89.035 E96.39044
G1 X108.178 Y88.084 E96.63254
G1 X111.679 Y87.656 E97.01347
G1 X114.888 Y88.277 E97.36647
G1 X117.238 Y89.118 E97.63603
G1 X117.449 Y89.219 E97.6613
G1 X118.692 Y89.264 E97.79563
G1 X132.431 Y89.302 E99.27945
G1 X132.628 Y89.322 E99.30083
G1 X133.828 Y89.323 E99.43043
G1 X135.911 Y89.92 E99.66445
G1 X137.714 Y91.456 E99.92026
G1 X138.239 Y91.136 E99.98666
G1 X140.208 Y90.57 E100.20792
G1 X142.655 Y90.608 E100.47223
G1 X144.8 Y91.165 E100.71157
G1 X145.219 Y91.43 E100.76512
G1 X147.315 Y89.79 E101.05254
G1 X149.476 Y89.278 E101.29239
G1 X153.571 Y89.278 E101.73465
G1 X155.402 Y89.685 E101.93723
G1 X156.792 Y90.643 E102.11955
G1 X158.441 Y92.315 E102.37317
G1 X159.326 Y94.857 E102.66387
G1 X159.406 Y98.395 E103.04607
G1 X160.475 Y100.028 E103.25686
G1 X161.039 Y102.139 E103.49285
G1 X161.04 Y107.855 E104.11018
G1 X160.362 Y109.369 E104.28933
G1 X160.286 Y109.891 E104.34631
G1 X160.263 Y110.585 E104.4213
G1 X160.239 Y120.643 E105.50757
G1 X159.704 Y122.744 E105.74171
G1 X159.355 Y123.227 E105.80607
G1 X159.339 Y127.988 E106.32026
G1 X158.971 Y129.637 E106.50274
G1 X158.07 Y131.122 E106.69033
G1 X156.192 Y132.916 E106.97082
G1 X153.635 Y133.741 E107.261
G1 X149.546 Y133.742 E107.70261
G1 X147.384 Y133.193 E107.94351
G1 X145.536 Y131.579 E108.2085
G1 X144.078 Y132.226 E108.38077
G1 X141.764 Y132.49 E108.63231
G1 X140.418 Y132.484 E108.77768
G1 X138.216 Y132.019 E109.02074
G1 X137.372 Y131.522 E109.12652
G1 X137.206 Y131.724 E109.15476
G1 X135.509 Y133.102 E109.39085
G1 X133.249 Y133.727 E109.64409
G1 X132.269 Y133.709 E109.74995
G1 X132.077 Y133.726 E109.77076
G1 X117.83 Y133.776 E111.30945
G1 X117.114 Y134.106 E111.39459
G1 X115.107 Y134.838 E111.62532
G1 X111.985 Y135.182 E111.96453
G1 X108.91 Y135.03 E112.29704
G1 X106.133 Y133.994 E112.61715
G1 X105.631 Y133.743 E112.67776
G1 X97.25 Y133.74 E113.58291
G1 X95.102 Y133.196 E113.82222
G1 X93.223 Y131.574 E114.0903
G1 X91.862 Y132.199 E114.25205
G1 X89.908 Y132.464 E114.46501
G1 X88.195 Y132.493 E114.65004
G1 X85.905 Y132.01 E114.9028
G1 X85.107 Y131.545 E115.00255
G1 X83.322 Y133.087 E115.2573
G1 X81.022 Y133.743 E115.51561
G1 X68.191 Y133.741 E116.90136
G1 X65.85 Y132.945 E117.1684
G1 X63.616 Y130.645 E117.51469
G1 X62.76 Y128.023 E117.81257
G1 X62.76 Y117.63 E118.93502
G1 X62.812 Y115.508 E119.16426
G1 X62.774 Y115.148 E119.20336
G1 X62.76 Y94.708 E121.41088
G1 X63.556 Y92.367 E121.67792
G1 X65.856 Y90.133 E122.02421
G0 F7200 X66.069 Y90.484
G1 F1800 X68.541 Y89.677 E122.30505
G1 X81.333 Y89.68 E123.68659
G1 X83.334 Y90.191 E123.90963
G1 X85.089 Y91.696 E124.15932
G1 X85.293 Y91.98 E124.19708
G1 X86.852 Y91.196 E124.38555
G1 X88.646 Y90.996 E124.5805
G1 X90.462 Y91.007 E124.77663
G1 X92.808 Y91.732 E125.04182
G1 X93.082 Y91.917 E125.07753
G1 X93.302 Y91.627 E125.11684
G1 X95.184 Y90.155 E125.37488
G1 X97.217 Y89.673 E125.60053
G1 X105.863 Y89.666 E126.5343
G1 X106.318 Y89.397 E126.59139
G1 X108.29 Y88.473 E126.82658
G1 X111.664 Y88.061 E127.19368
G1 X114.753 Y88.654 E127.53339
G1 X117.103 Y89.495 E127.80295
G1 X117.349 Y89.616 E127.83256
G1 X118.678 Y89.664 E127.97618
G1 X132.391 Y89.7 E129.45719
G1 X132.608 Y89.722 E129.48075
G1 X133.774 Y89.723 E129.60668
G1 X135.716 Y90.28 E129.82487
G1 X137.407 Y91.72 E130.06474
G1 X137.606 Y91.99 E130.10097
G1 X138.401 Y91.505 E130.20154
G1 X140.259 Y90.971 E130.41033
G1 X142.601 Y91.007 E130.6633
G1 X144.699 Y91.552 E130.8974
G1 X145.336 Y91.999 E130.98144
G1 X145.603 Y91.637 E131.03002
G1 X147.492 Y90.159 E131.28906
G1 X149.522 Y89.678 E131.51437
G1 X153.529 Y89.678 E131.94713
G1 X155.239 Y90.058 E132.13631
G1 X156.532 Y90.949 E132.3059
G1 X158.093 Y92.532 E132.54601
G1 X158.927 Y94.929 E132.82011
G1 X159.009 Y98.519 E133.20793
G1 X160.106 Y100.195 E133.42426
G1 X160.639 Y102.19 E133.64728
G1 X160.64 Y107.769 E134.24981
G1 X159.974 Y109.256 E134.42578
G1 X159.887 Y109.857 E134.49136
G1 X159.863 Y110.572 E134.56863
G1 X159.839 Y120.591 E135.65068
G1 X159.334 Y122.573 E135.87158
G1 X158.955 Y123.097 E135.94142
G1 X158.939 Y127.945 E136.46501
G1 X158.595 Y129.485 E136.63543
G1 X157.755 Y130.87 E136.81037
G1 X155.983 Y132.563 E137.07505
G1 X153.571 Y133.341 E137.34876
G1 X149.598 Y133.342 E137.77784
G1 X147.575 Y132.828 E138.00327
G1 X145.827 Y131.307 E138.25352
G1 X145.664 Y131.084 E138.28335
G1 X143.97 Y131.836 E138.48352
G1 X141.766 Y132.09 E138.72312
G1 X140.459 Y132.084 E138.86428
G1 X138.364 Y131.642 E139.09552
G1 X137.267 Y130.995 E139.23307
G1 X136.954 Y131.414 E139.28955
G1 X135.324 Y132.738 E139.51635
G1 X133.197 Y133.326 E139.75468
G1 X132.257 Y133.309 E139.85622
G1 X132.076 Y133.326 E139.87585
G1 X117.741 Y133.376 E141.42404
G1 X116.977 Y133.73 E141.51498
G1 X115.016 Y134.445 E141.74041
G1 X112.005 Y134.782 E142.06763
G1 X108.991 Y134.633 E142.39354
G1 X106.273 Y133.619 E142.70684
G1 X105.726 Y133.343 E142.77301
G1 X97.301 Y133.34 E143.68291
G1 X95.291 Y132.831 E143.90685
G1 X93.519 Y131.309 E144.15912
G1 X93.348 Y131.077 E144.19025
G1 X91.75 Y131.811 E144.38017
G1 X89.901 Y132.064 E144.58172
G1 X88.232 Y132.092 E144.762
G1 X86.052 Y131.632 E145.00262
G1 X84.985 Y131.011 E145.13596
G1 X84.75 Y131.325 E145.17831
G1 X83.128 Y132.726 E145.40979
G1 X80.965 Y133.343 E145.65271
G1 X68.258 Y133.341 E147.02507
G1 X66.07 Y132.597 E147.27466
G1 X63.967 Y130.432 E147.60063
G1 X63.16 Y127.96 E147.88147
G1 X63.16 Y117.64 E148.99603
G1 X63.213 Y115.491 E149.22819
G1 X63.172 Y115.106 E149.27001
G1 X63.16 Y94.775 E151.46576
G1 X63.904 Y92.587 E151.71535
G1 X66.069 Y90.484 E152.04132
G0 F7200 X66.282 Y90.835
G1 F1800 X68.604 Y90.077 E152.30512
G1 X81.281 Y90.08 E153.67424
G1 X83.145 Y90.556 E153.88201
G1 X84.829 Y92 E154.12159
G1 X85.155 Y92.497 E154.18578
G1 X86.966 Y91.586 E154.40472
G1 X88.69 Y91.394 E154.59207
G1 X90.401 Y91.407 E154.77686
G1 X92.69 Y92.114 E155.03559
G1 X93.17 Y92.502 E155.10225
G1 X93.548 Y91.942 E155.17522
G1 X95.361 Y90.524 E155.4238
G1 X97.263 Y90.073 E155.63491
G1 X105.973 Y90.066 E156.57559
G1 X106.522 Y89.741 E156.6445
G1 X108.4 Y88.863 E156.86839
G1 X111.65 Y88.466 E157.222
G1 X114.678 Y89.047 E157.55499
G1 X116.926 Y89.854 E157.81294
G1 X117.249 Y90.013 E157.85183
G1 X118.664 Y90.064 E158.00474
G1 X132.351 Y90.098 E159.48295
G1 X132.587 Y90.122 E159.50856
G1 X133.716 Y90.123 E159.6305
G1 X135.523 Y90.641 E159.83351
G1 X137.148 Y92.025 E160.06404
G1 X137.486 Y92.531 E160.12976
G1 X138.563 Y91.874 E160.26601
G1 X140.31 Y91.372 E160.46232
G1 X142.547 Y91.406 E160.70394
G1 X144.529 Y91.921 E160.92511
G1 X145.44 Y92.56 E161.04529
G1 X145.849 Y91.952 E161.12442
G1 X147.669 Y90.528 E161.374
G1 X149.568 Y90.078 E161.58477
G1 X153.487 Y90.078 E162.00802
G1 X155.076 Y90.431 E162.18382
G1 X156.272 Y91.255 E162.34067
G1 X157.745 Y92.749 E162.56726
G1 X158.528 Y95.001 E162.82476
G1 X158.612 Y98.643 E163.2182
G1 X159.737 Y100.362 E163.44008
G1 X160.239 Y102.241 E163.65013
G1 X160.24 Y107.683 E164.23786
G1 X159.586 Y109.143 E164.41064
G1 X159.488 Y109.823 E164.48484
G1 X159.463 Y110.558 E164.56426
G1 X159.439 Y120.539 E165.64222
G1 X158.946 Y122.474 E165.85787
G1 X158.555 Y122.955 E165.92482
G1 X158.539 Y127.902 E166.4591
G1 X158.22 Y129.332 E166.61733
G1 X157.439 Y130.619 E166.77992
G1 X155.774 Y132.21 E167.02864
G1 X153.507 Y132.941 E167.28589
G1 X149.65 Y132.942 E167.70244
G1 X147.766 Y132.463 E167.91239
G1 X146.09 Y131.005 E168.1523
G1 X145.788 Y130.541 E168.21209
G1 X145.621 Y130.665 E168.23456
